icons.svg

<svg xmlns="http://www.w3.org/2000/svg" style="display: none;">
    <!-- Icono de búsqueda -->
    <symbol id="search-icon" viewBox="0 0 24 24">
        <path d="M21 21L16.514 16.506L21 21ZM19 10.5C19 15.194 15.194 19 10.5 19C5.806 19 2 15.194 2 10.5C2 5.806 5.806 2 10.5 2C15.194 2 19 5.806 19 10.5Z" 
              stroke="currentColor" stroke-width="2" stroke-linecap="round" stroke-linejoin="round"/>
    </symbol>
    
    <!-- Icono de menú hamburguesa -->
    <symbol id="menu-icon" viewBox="0 0 24 24">
        <path d="M3 12H21M3 6H21M3 18H21" 
              stroke="currentColor" stroke-width="2" stroke-linecap="round" stroke-linejoin="round"/>
    </symbol>
    
    <!-- Icono de cerrar -->
    <symbol id="close-icon" viewBox="0 0 24 24">
        <path d="M18 6L6 18M6 6L18 18" 
              stroke="currentColor" stroke-width="2" stroke-linecap="round" stroke-linejoin="round"/>
    </symbol>
    
    <!-- Icono de usuario -->
    <symbol id="user-icon" viewBox="0 0 24 24">
        <path d="M20 21V19C20 17.9391 19.5786 16.9217 18.8284 16.1716C18.0783 15.4214 17.0609 15 16 15H8C6.93913 15 5.92172 15.4214 5.17157 16.1716C4.42143 16.9217 4 17.9391 4 19V21" 
              stroke="currentColor" stroke-width="2" stroke-linecap="round" stroke-linejoin="round"/>
        <path d="M12 11C14.2091 11 16 9.20914 16 7C16 4.79086 14.2091 3 12 3C9.79086 3 8 4.79086 8 7C8 9.20914 9.79086 11 12 11Z" 
              stroke="currentColor" stroke-width="2" stroke-linecap="round" stroke-linejoin="round"/>
    </symbol>
    
    <!-- Icono de email -->
    <symbol id="email-icon" viewBox="0 0 24 24">
        <path d="M4 4H20C21.1 4 22 4.9 22 6V18C22 19.1 21.1 20 20 20H4C2.9 20 2 19.1 2 18V6C2 4.9 2.9 4 4 4Z" 
              stroke="currentColor" stroke-width="2" stroke-linecap="round" stroke-linejoin="round"/>
        <path d="M22 6L12 13L2 6" 
              stroke="currentColor" stroke-width="2" stroke-linecap="round" stroke-linejoin="round"/>
    </symbol>
    
    <!-- Icono de contraseña -->
    <symbol id="password-icon" viewBox="0 0 24 24">
        <path d="M12 15V17M6 21H18C19.1046 21 20 20.1046 20 19V13C20 11.8954 19.1046 11 18 11H6C4.89543 11 4 11.8954 4 13V19C4 20.1046 4.89543 21 6 21Z" 
              stroke="currentColor" stroke-width="2" stroke-linecap="round" stroke-linejoin="round"/>
        <path d="M16 11V7C16 4.79086 14.2091 3 12 3C9.79086 3 8 4.79086 8 7V11" 
              stroke="currentColor" stroke-width="2" stroke-linecap="round" stroke-linejoin="round"/>
    </symbol>
    
    <!-- Icono de ojo abierto -->
    <symbol id="eye-icon" viewBox="0 0 24 24">
        <path d="M1 12C1 12 5 4 12 4C19 4 23 12 23 12C23 12 19 20 12 20C5 20 1 12 1 12Z" 
              stroke="currentColor" stroke-width="2" stroke-linecap="round" stroke-linejoin="round"/>
        <path d="M12 15C13.6569 15 15 13.6569 15 12C15 10.3431 13.6569 9 12 9C10.3431 9 9 10.3431 9 12C9 13.6569 10.3431 15 12 15Z" 
              stroke="currentColor" stroke-width="2" stroke-linecap="round" stroke-linejoin="round"/>
    </symbol>
    
    <!-- Icono de ojo cerrado -->
    <symbol id="eye-off-icon" viewBox="0 0 24 24">
        <path d="M9.9 4.24C10.5883 4.07888 11.2931 3.99834 12 4C19 4 23 12 23 12C22.393 13.1356 21.6691 14.2047 20.84 15.19M14.12 14.12C13.8454 14.4147 13.5141 14.6512 13.1462 14.8151C12.7782 14.9791 12.3809 15.0673 11.9781 15.0744C11.5753 15.0815 11.1752 15.0074 10.8016 14.8565C10.4281 14.7056 10.0887 14.481 9.80385 14.1962C9.51897 13.9113 9.29439 13.5719 9.14351 13.1984C8.99262 12.8248 8.91853 12.4247 8.92563 12.0219C8.93274 11.6191 9.02091 11.2218 9.18488 10.8538C9.34884 10.4859 9.58525 10.1546 9.88 9.88M17.94 17.94C16.2306 19.243 14.1491 19.9649 12 20C5 20 1 12 1 12C2.24389 9.6819 3.96914 7.65661 6.06 6.06L17.94 17.94Z" 
              stroke="currentColor" stroke-width="2" stroke-linecap="round" stroke-linejoin="round"/>
        <path d="M1 1L23 23" 
              stroke="currentColor" stroke-width="2" stroke-linecap="round" stroke-linejoin="round"/>
    </symbol>
    
    <!-- Icono de estrella -->
    <symbol id="star-icon" viewBox="0 0 24 24">
        <path d="M12 2L15.09 8.26L22 9.27L17 14.14L18.18 21.02L12 17.77L5.82 21.02L7 14.14L2 9.27L8.91 8.26L12 2Z" 
              fill="currentColor" stroke="currentColor" stroke-width="2" stroke-linecap="round" stroke-linejoin="round"/>
    </symbol>
    
    <!-- Icono de calendario -->
    <symbol id="calendar-icon" viewBox="0 0 24 24">
        <path d="M19 4H5C3.89543 4 3 4.89543 3 6V20C3 21.1046 3.89543 22 5 22H19C20.1046 22 21 21.1046 21 20V6C21 4.89543 20.1046 4 19 4Z" 
              stroke="currentColor" stroke-width="2" stroke-linecap="round" stroke-linejoin="round"/>
        <path d="M16 2V6" stroke="currentColor" stroke-width="2" stroke-linecap="round" stroke-linejoin="round"/>
        <path d="M8 2V6" stroke="currentColor" stroke-width="2" stroke-linecap="round" stroke-linejoin="round"/>
        <path d="M3 10H21" stroke="currentColor" stroke-width="2" stroke-linecap="round" stroke-linejoin="round"/>
    </symbol>
    
    <!-- Icono de reloj -->
    <symbol id="clock-icon" viewBox="0 0 24 24">
        <path d="M12 22C17.5228 22 22 17.5228 22 12C22 6.47715 17.5228 2 12 2C6.47715 2 2 6.47715 2 12C2 17.5228 6.47715 22 12 22Z" 
              stroke="currentColor" stroke-width="2" stroke-linecap="round" stroke-linejoin="round"/>
        <path d="M12 6V12L16 14" 
              stroke="currentColor" stroke-width="2" stroke-linecap="round" stroke-linejoin="round"/>
    </symbol>
    
    <!-- Icono de play -->
    <symbol id="play-icon" viewBox="0 0 24 24">
        <path d="M8 5V19L19 12L8 5Z" 
              fill="currentColor" stroke="currentColor" stroke-width="2" stroke-linecap="round" stroke-linejoin="round"/>
    </symbol>
    
    <!-- Icono de corazón -->
    <symbol id="heart-icon" viewBox="0 0 24 24">
        <path d="M20.84 4.61C20.3292 4.099 19.7228 3.69364 19.0554 3.41708C18.3879 3.14052 17.6725 2.99817 16.95 2.99817C16.2275 2.99817 15.5121 3.14052 14.8446 3.41708C14.1772 3.69364 13.5708 4.099 13.06 4.61L12 5.67L10.94 4.61C9.9083 3.5783 8.50903 2.9987 7.05 2.9987C5.59096 2.9987 4.19169 3.5783 3.16 4.61C2.1283 5.6417 1.5487 7.04097 1.5487 8.5C1.5487 9.95903 2.1283 11.3583 3.16 12.39L12 21.23L20.84 12.39C21.351 11.8792 21.7563 11.2728 22.0329 10.6053C22.3095 9.93789 22.4518 9.22248 22.4518 8.5C22.4518 7.77752 22.3095 7.06211 22.0329 6.39465C21.7563 5.72719 21.351 5.12076 20.84 4.61Z" 
              fill="currentColor" stroke="currentColor" stroke-width="2" stroke-linecap="round" stroke-linejoin="round"/>
    </symbol>
    
    <!-- Icono de anime -->
    <symbol id="anime-icon" viewBox="0 0 24 24">
        <path d="M12 2L14.5 8.5L21 9L16 13.5L17.5 20L12 16.5L6.5 20L8 13.5L3 9L9.5 8.5L12 2Z" 
              fill="currentColor" stroke="currentColor" stroke-width="2" stroke-linecap="round" stroke-linejoin="round"/>
    </symbol>
    
    <!-- Icono de película -->
    <symbol id="movie-icon" viewBox="0 0 24 24">
        <path d="M4 4H20C21.1 4 22 4.9 22 6V18C22 19.1 21.1 20 20 20H4C2.9 20 2 19.1 2 18V6C2 4.9 2.9 4 4 4Z" 
              stroke="currentColor" stroke-width="2" stroke-linecap="round" stroke-linejoin="round"/>
        <path d="M10 8L16 12L10 16V8Z" 
              fill="currentColor" stroke="currentColor" stroke-width="2" stroke-linecap="round" stroke-linejoin="round"/>
    </symbol>
    
    <!-- Icono de serie -->
    <symbol id="tv-icon" viewBox="0 0 24 24">
        <path d="M20 7H4C2.89543 7 2 7.89543 2 9V19C2 20.1046 2.89543 21 4 21H20C21.1046 21 22 20.1046 22 19V9C22 7.89543 21.1046 7 20 7Z" 
              stroke="currentColor" stroke-width="2" stroke-linecap="round" stroke-linejoin="round"/>
        <path d="M17 2L12 7L7 2" 
              stroke="currentColor" stroke-width="2" stroke-linecap="round" stroke-linejoin="round"/>
    </symbol>
    
    <!-- Icono de información -->
    <symbol id="info-icon" viewBox="0 0 24 24">
        <path d="M12 16V12M12 8H12.01M22 12C22 17.5228 17.5228 22 12 22C6.47715 22 2 17.5228 2 12C2 6.47715 6.47715 2 12 2C17.5228 2 22 6.47715 22 12Z" 
              stroke="currentColor" stroke-width="2" stroke-linecap="round" stroke-linejoin="round"/>
    </symbol>
    
    <!-- Icono de filtro -->
    <symbol id="filter-icon" viewBox="0 0 24 24">
        <path d="M22 3H2L10 12.46V19L14 21V12.46L22 3Z" 
              stroke="currentColor" stroke-width="2" stroke-linecap="round" stroke-linejoin="round"/>
    </symbol>
</svg>

<svg xmlns="http://www.w3.org/2000/svg" style="display: none;">
    <symbol id="search-icon" viewBox="0 0 24 24">
        <path d="M21 21l-4.486-4.494L21 21zm-2-10.5a8.5 8.5 0 1 1-17 0 8.5 8.5 0 0 1 17 0z" 
              stroke="currentColor" stroke-width="2" stroke-linecap="round" stroke-linejoin="round" fill="none"/>
    </symbol>
    
    <symbol id="menu-icon" viewBox="0 0 24 24">
        <path d="M3 12h18M3 6h18M3 18h18" 
              stroke="currentColor" stroke-width="2" stroke-linecap="round" stroke-linejoin="round" fill="none"/>
    </symbol>
    
    <symbol id="close-icon" viewBox="0 0 24 24">
        <path d="M18 6L6 18M6 6l12 12" 
              stroke="currentColor" stroke-width="2" stroke-linecap="round" stroke-linejoin="round" fill="none"/>
    </symbol>
    
    <symbol id="user-icon" viewBox="0 0 24 24">
        <path d="M20 21v-2a4 4 0 0 0-4-4H8a4 4 0 0 0-4 4v2" 
              stroke="currentColor" stroke-width="2" stroke-linecap="round" stroke-linejoin="round" fill="none"/>
        <circle cx="12" cy="7" r="4" 
                stroke="currentColor" stroke-width="2" stroke-linecap="round" stroke-linejoin="round" fill="none"/>
    </symbol>
    
    <symbol id="email-icon" viewBox="0 0 24 24">
        <rect x="4" y="4" width="16" height="16" rx="2" 
              stroke="currentColor" stroke-width="2" stroke-linecap="round" stroke-linejoin="round" fill="none"/>
        <path d="m22 6-10 7L2 6" 
              stroke="currentColor" stroke-width="2" stroke-linecap="round" stroke-linejoin="round" fill="none"/>
    </symbol>
    
    <symbol id="password-icon" viewBox="0 0 24 24">
        <rect x="4" y="11" width="16" height="10" rx="2" 
              stroke="currentColor" stroke-width="2" stroke-linecap="round" stroke-linejoin="round" fill="none"/>
        <path d="M16 11V7a4 4 0 1 0-8 0v4" 
              stroke="currentColor" stroke-width="2" stroke-linecap="round" stroke-linejoin="round" fill="none"/>
        <path d="M12 15v2" stroke="currentColor" stroke-width="2" stroke-linecap="round" stroke-linejoin="round" fill="none"/>
    </symbol>
    
    <symbol id="eye-icon" viewBox="0 0 24 24">
        <path d="M1 12s4-8 11-8 11 8 11 8-4 8-11 8-11-8-11-8z" 
              stroke="currentColor" stroke-width="2" stroke-linecap="round" stroke-linejoin="round" fill="none"/>
        <circle cx="12" cy="12" r="3" 
                stroke="currentColor" stroke-width="2" stroke-linecap="round" stroke-linejoin="round" fill="none"/>
    </symbol>
    
    <symbol id="eye-off-icon" viewBox="0 0 24 24">
        <path d="M9.9 4.24A10 10 0 0 1 12 4c7 0 11 8 11 8a19 19 0 0 1-1.16 1.95M14.12 14.12a3 3 0 1 1-4.24-4.24m8.06 8.06A10 10 0 0 1 12 20c-7 0-11-8-11-8a19 19 0 0 1 5.06-5.94l11.88 11.88z" 
              stroke="currentColor" stroke-width="2" stroke-linecap="round" stroke-linejoin="round" fill="none"/>
        <path d="m1 1 22 22" stroke="currentColor" stroke-width="2" stroke-linecap="round" stroke-linejoin="round" fill="none"/>
    </symbol>
    
    <symbol id="star-icon" viewBox="0 0 24 24">
        <path d="m12 2 3.09 6.26L22 9.27l-5 4.87 1.18 6.88L12 17.77l-6.18 3.28L7 14.14 2 9.27l6.91-1.01L12 2z" 
              fill="currentColor" stroke="currentColor" stroke-width="2" stroke-linecap="round" stroke-linejoin="round"/>
    </symbol>
    
    <symbol id="calendar-icon" viewBox="0 0 24 24">
        <rect x="3" y="4" width="18" height="18" rx="2" 
              stroke="currentColor" stroke-width="2" stroke-linecap="round" stroke-linejoin="round" fill="none"/>
        <path d="M16 2v4M8 2v4M3 10h18" 
              stroke="currentColor" stroke-width="2" stroke-linecap="round" stroke-linejoin="round" fill="none"/>
    </symbol>
    
    <symbol id="clock-icon" viewBox="0 0 24 24">
        <circle cx="12" cy="12" r="10" 
                stroke="currentColor" stroke-width="2" stroke-linecap="round" stroke-linejoin="round" fill="none"/>
        <path d="M12 6v6l4 2" 
              stroke="currentColor" stroke-width="2" stroke-linecap="round" stroke-linejoin="round" fill="none"/>
    </symbol>
    
    <symbol id="play-icon" viewBox="0 0 24 24">
        <path d="m8 5 11 7-11 7V5z" 
              fill="currentColor" stroke="currentColor" stroke-width="2" stroke-linecap="round" stroke-linejoin="round"/>
    </symbol>
    
    <symbol id="heart-icon" viewBox="0 0 24 24">
        <path d="M20.84 4.61a5.5 5.5 0 0 0-7.78 0L12 5.67l-1.06-1.06a5.5 5.5 0 0 0-7.78 7.78l1.06 1.06L12 21.23l7.78-7.78 1.06-1.06a5.5 5.5 0 0 0 0-7.78z" 
              fill="currentColor" stroke="currentColor" stroke-width="2" stroke-linecap="round" stroke-linejoin="round"/>
    </symbol>
    
    <symbol id="anime-icon" viewBox="0 0 24 24">
        <path d="m12 2 2.5 6.5L21 9l-5 4.5 1.5 6.5L12 16.5 6.5 20 8 13.5 3 9l6.5-1L12 2z" 
              fill="currentColor" stroke="currentColor" stroke-width="2" stroke-linecap="round" stroke-linejoin="round"/>
    </symbol>
    
    <symbol id="movie-icon" viewBox="0 0 24 24">
        <rect x="2" y="4" width="20" height="16" rx="2" 
              stroke="currentColor" stroke-width="2" stroke-linecap="round" stroke-linejoin="round" fill="none"/>
        <path d="m10 8 6 4-6 4V8z" 
              fill="currentColor" stroke="currentColor" stroke-width="2" stroke-linecap="round" stroke-linejoin="round"/>
    </symbol>
    
    <symbol id="tv-icon" viewBox="0 0 24 24">
        <rect x="2" y="7" width="20" height="14" rx="2" 
              stroke="currentColor" stroke-width="2" stroke-linecap="round" stroke-linejoin="round" fill="none"/>
        <path d="m17 2-5 5-5-5" 
              stroke="currentColor" stroke-width="2" stroke-linecap="round" stroke-linejoin="round" fill="none"/>
    </symbol>
    
    <symbol id="info-icon" viewBox="0 0 24 24">
        <circle cx="12" cy="12" r="10" 
                stroke="currentColor" stroke-width="2" stroke-linecap="round" stroke-linejoin="round" fill="none"/>
        <path d="M12 16v-4m0-4h.01" 
              stroke="currentColor" stroke-width="2" stroke-linecap="round" stroke-linejoin="round" fill="none"/>
    </symbol>
    
    <symbol id="filter-icon" viewBox="0 0 24 24">
        <path d="M22 3H2l8 9.46V19l4 2v-9.54L22 3z" 
              stroke="currentColor" stroke-width="2" stroke-linecap="round" stroke-linejoin="round" fill="none"/>
    </symbol>
</svg>
